Newaita/actions/22/edit-select-none.svg

<?xml version="1.0" encoding="UTF-8"?>
<svg xmlns="http://www.w3.org/2000/svg" xmlns:xlink="http://www.w3.org/1999/xlink" width="22pt" height="22pt" viewBox="0 0 22 22" version="1.1">
<g id="surface1">
<path style=" stroke:none;fill-rule:nonzero;fill:rgb(25.882354%,25.882354%,25.882354%);fill-opacity:0.392157;" d="M 5.457031 4.71875 C 4.953125 4.71875 4.546875 5.125 4.546875 5.628906 L 4.546875 9.269531 C 4.546875 9.773438 4.953125 10.175781 5.457031 10.175781 L 9.097656 10.175781 C 9.601562 10.175781 10.003906 9.773438 10.003906 9.269531 L 10.003906 5.628906 C 10.003906 5.125 9.601562 4.71875 9.097656 4.71875 Z M 6.367188 6.085938 L 8.1875 6.085938 C 8.4375 6.085938 8.640625 6.285156 8.640625 6.539062 L 8.640625 8.359375 C 8.640625 8.609375 8.4375 8.8125 8.1875 8.8125 L 6.367188 8.8125 C 6.113281 8.8125 5.914062 8.609375 5.914062 8.359375 L 5.914062 6.539062 C 5.914062 6.285156 6.113281 6.085938 6.367188 6.085938 Z M 6.367188 6.085938 "/>
<path style=" stroke:none;fill-rule:nonzero;fill:rgb(25.882354%,25.882354%,25.882354%);fill-opacity:0.392157;" d="M 12.734375 4.71875 C 12.230469 4.71875 11.824219 5.125 11.824219 5.628906 L 11.824219 9.269531 C 11.824219 9.773438 12.230469 10.175781 12.734375 10.175781 L 16.371094 10.175781 C 16.875 10.175781 17.28125 9.773438 17.28125 9.269531 L 17.28125 5.628906 C 17.28125 5.125 16.875 4.71875 16.371094 4.71875 Z M 13.644531 6.085938 L 15.464844 6.085938 C 15.714844 6.085938 15.917969 6.285156 15.917969 6.539062 L 15.917969 8.359375 C 15.917969 8.609375 15.714844 8.8125 15.464844 8.8125 L 13.644531 8.8125 C 13.390625 8.8125 13.1875 8.609375 13.1875 8.359375 L 13.1875 6.539062 C 13.1875 6.285156 13.390625 6.085938 13.644531 6.085938 Z M 13.644531 6.085938 "/>
<path style=" stroke:none;fill-rule:nonzero;fill:rgb(25.882354%,25.882354%,25.882354%);fill-opacity:0.392157;" d="M 5.457031 11.996094 C 4.953125 11.996094 4.546875 12.402344 4.546875 12.90625 L 4.546875 16.542969 C 4.546875 17.046875 4.953125 17.453125 5.457031 17.453125 L 9.097656 17.453125 C 9.601562 17.453125 10.003906 17.046875 10.003906 16.542969 L 10.003906 12.90625 C 10.003906 12.402344 9.601562 11.996094 9.097656 11.996094 Z M 6.367188 13.359375 L 8.1875 13.359375 C 8.4375 13.359375 8.640625 13.5625 8.640625 13.816406 L 8.640625 15.636719 C 8.640625 15.886719 8.4375 16.089844 8.1875 16.089844 L 6.367188 16.089844 C 6.113281 16.089844 5.914062 15.886719 5.914062 15.636719 L 5.914062 13.816406 C 5.914062 13.5625 6.113281 13.359375 6.367188 13.359375 Z M 6.367188 13.359375 "/>
<path style=" stroke:none;fill-rule:nonzero;fill:rgb(25.882354%,25.882354%,25.882354%);fill-opacity:0.392157;" d="M 12.734375 11.996094 C 12.230469 11.996094 11.824219 12.402344 11.824219 12.90625 L 11.824219 16.542969 C 11.824219 17.046875 12.230469 17.453125 12.734375 17.453125 L 16.371094 17.453125 C 16.875 17.453125 17.28125 17.046875 17.28125 16.542969 L 17.28125 12.90625 C 17.28125 12.402344 16.875 11.996094 16.371094 11.996094 Z M 13.644531 13.359375 L 15.464844 13.359375 C 15.714844 13.359375 15.917969 13.5625 15.917969 13.816406 L 15.917969 15.636719 C 15.917969 15.886719 15.714844 16.089844 15.464844 16.089844 L 13.644531 16.089844 C 13.390625 16.089844 13.1875 15.886719 13.1875 15.636719 L 13.1875 13.816406 C 13.1875 13.5625 13.390625 13.359375 13.644531 13.359375 Z M 13.644531 13.359375 "/>
<path style=" stroke:none;fill-rule:nonzero;fill:rgb(14.901961%,77.64706%,85.490197%);fill-opacity:0.996078;" d="M 2.730469 1.082031 C 1.722656 1.082031 0.910156 1.894531 0.910156 2.902344 L 0.910156 5.628906 C 0.910156 5.882812 1.207031 6.085938 1.578125 6.085938 L 1.605469 6.085938 C 1.976562 6.085938 2.273438 5.882812 2.273438 5.628906 L 2.273438 3.355469 C 2.273438 2.851562 2.679688 2.445312 3.183594 2.445312 L 5.457031 2.445312 C 5.710938 2.445312 5.914062 2.140625 5.914062 1.761719 C 5.914062 1.386719 5.710938 1.082031 5.457031 1.082031 Z M 16.371094 1.082031 C 16.121094 1.082031 15.917969 1.386719 15.917969 1.761719 C 15.917969 2.140625 16.121094 2.445312 16.371094 2.445312 L 18.648438 2.445312 C 19.152344 2.445312 19.554688 2.851562 19.554688 3.355469 L 19.554688 5.628906 C 19.554688 5.882812 19.859375 6.085938 20.238281 6.085938 C 20.617188 6.085938 20.921875 5.882812 20.921875 5.628906 L 20.921875 2.902344 C 20.921875 1.894531 20.109375 1.082031 19.101562 1.082031 Z M 1.578125 16.089844 C 1.207031 16.089844 0.910156 16.292969 0.910156 16.542969 L 0.910156 19.273438 C 0.910156 20.28125 1.722656 21.09375 2.730469 21.09375 L 5.457031 21.09375 C 5.710938 21.09375 5.914062 20.789062 5.914062 20.410156 C 5.914062 20.03125 5.710938 19.726562 5.457031 19.726562 L 3.183594 19.726562 C 2.679688 19.726562 2.273438 19.324219 2.273438 18.820312 L 2.273438 16.542969 C 2.273438 16.292969 1.976562 16.089844 1.605469 16.089844 Z M 20.238281 16.089844 C 19.859375 16.089844 19.554688 16.292969 19.554688 16.542969 L 19.554688 18.820312 C 19.554688 19.324219 19.152344 19.726562 18.648438 19.726562 L 16.371094 19.726562 C 16.121094 19.726562 15.917969 20.03125 15.917969 20.410156 C 15.917969 20.789062 16.121094 21.09375 16.371094 21.09375 L 19.101562 21.09375 C 20.109375 21.09375 20.921875 20.28125 20.921875 19.273438 L 20.921875 16.542969 C 20.921875 16.292969 20.617188 16.089844 20.238281 16.089844 Z M 20.238281 16.089844 "/>
</g>
</svg>

<svg xmlns="http://www.w3.org/2000/svg" width="22pt" height="22pt" viewBox="0 0 22 22"><path d="M5.457 4.719a.909.909 0 0 0-.91.91v3.64c0 .504.406.907.91.907h3.64a.902.902 0 0 0 .907-.906V5.629a.905.905 0 0 0-.906-.91zm.91 1.367h1.82c.25 0 .454.2.454.453v1.82c0 .25-.204.454-.454.454h-1.82a.451.451 0 0 1-.453-.454V6.54c0-.254.2-.453.453-.453zm0 0M12.734 4.719a.909.909 0 0 0-.91.91v3.64c0 .504.406.907.91.907h3.637c.504 0 .91-.403.91-.906V5.629a.909.909 0 0 0-.91-.91zm.91 1.367h1.82c.25 0 .454.2.454.453v1.82c0 .25-.203.454-.453.454h-1.82a.454.454 0 0 1-.457-.454V6.54c0-.254.203-.453.457-.453zm0 0M5.457 11.996a.909.909 0 0 0-.91.91v3.637c0 .504.406.91.91.91h3.64a.905.905 0 0 0 .907-.91v-3.637a.905.905 0 0 0-.906-.91zm.91 1.363h1.82c.25 0 .454.204.454.457v1.82c0 .25-.204.454-.454.454h-1.82a.451.451 0 0 1-.453-.453v-1.82c0-.255.2-.458.453-.458zm0 0M12.734 11.996a.909.909 0 0 0-.91.91v3.637c0 .504.406.91.91.91h3.637c.504 0 .91-.406.91-.91v-3.637a.909.909 0 0 0-.91-.91zm.91 1.363h1.82c.25 0 .454.204.454.457v1.82c0 .25-.203.454-.453.454h-1.82a.454.454 0 0 1-.457-.453v-1.82c0-.255.203-.458.457-.458zm0 0" fill="#424242" fill-opacity=".392"/><path d="M2.73 1.082c-1.007 0-1.82.813-1.82 1.82V5.63c0 .254.297.457.668.457h.027c.372 0 .668-.203.668-.457V3.355c0-.503.407-.91.91-.91h2.274c.254 0 .457-.304.457-.683 0-.375-.203-.68-.457-.68zm13.641 0c-.25 0-.453.305-.453.68 0 .379.203.683.453.683h2.277c.504 0 .907.407.907.91V5.63c0 .254.304.457.683.457.38 0 .684-.203.684-.457V2.902c0-1.007-.813-1.82-1.82-1.82zM1.578 16.09c-.371 0-.668.203-.668.453v2.73c0 1.008.813 1.82 1.82 1.82h2.727c.254 0 .457-.304.457-.683 0-.379-.203-.683-.457-.683H3.184a.905.905 0 0 1-.91-.907v-2.277c0-.25-.297-.453-.669-.453zm18.66 0c-.379 0-.683.203-.683.453v2.277a.902.902 0 0 1-.907.907h-2.277c-.25 0-.453.304-.453.683 0 .38.203.684.453.684h2.73c1.008 0 1.82-.813 1.82-1.82v-2.731c0-.25-.304-.453-.683-.453zm0 0" fill="#26c6da" fill-opacity=".996"/></svg>
